src/resources/assets/restore.svg

<svg xmlns="http://www.w3.org/2000/svg" width="16" height="16"><g fill="#ddd"><path d="M 5.085938 4 C 5.289062 3.417969 5.847656 3 6.5 3 L 10 3 C 11.65625 3 13 4.34375 13 6 L 13 9.5 C 13 10.152344 12.582031 10.707031 12 10.914062 L 12 6 C 12 4.894531 11.105469 4 10 4 Z M 5.085938 4"/><path d="M 4.5 5 L 9.5 5 C 10.328125 5 11 5.671875 11 6.5 L 11 11.5 C 11 12.328125 10.328125 13 9.5 13 L 4.5 13 C 3.671875 13 3 12.328125 3 11.5 L 3 6.5 C 3 5.671875 3.671875 5 4.5 5 Z M 4.5 6 C 4.222656 6 4 6.222656 4 6.5 L 4 11.5 C 4 11.777344 4.222656 12 4.5 12 L 9.5 12 C 9.777344 12 10 11.777344 10 11.5 L 10 6.5 C 10 6.222656 9.777344 6 9.5 6 Z M 4.5 6"/></g></svg>

<svg xmlns="http://www.w3.org/2000/svg" width="16" height="16"><g fill="#ddd"><path d="M5.086 4c.203-.582.762-1 1.414-1H10a3 3 0 013 3v3.5c0 .652-.418 1.207-1 1.414V6c0-1.105-.895-2-2-2zm0 0"/><path d="M4.5 5h5A1.5 1.5 0 0111 6.5v5A1.5 1.5 0 019.5 13h-5A1.5 1.5 0 013 11.5v-5A1.5 1.5 0 014.5 5zm0 1c-.277 0-.5.223-.5.5v5c0 .277.223.5.5.5h5c.277 0 .5-.223.5-.5v-5c0-.277-.223-.5-.5-.5zm0 0"/></g></svg>
